svg/color/bios.svg

<?xml version="1.0" encoding="UTF-8" ?>
<!DOCTYPE svg PUBLIC "-//W3C//DTD SVG 1.1//EN" "http://www.w3.org/Graphics/SVG/1.1/DTD/svg11.dtd">
<svg width="250pt" height="250pt" viewBox="0 0 250 250" version="1.1" xmlns="http://www.w3.org/2000/svg">
<g id="#212121ff">
<path fill="#212121" opacity="1.00" d=" M 0.00 0.00 L 250.00 0.00 L 250.00 250.00 L 0.00 250.00 L 0.00 0.00 M 135.57 82.69 C 131.21 85.95 130.32 91.77 128.17 96.45 C 120.41 114.70 113.17 133.17 105.39 151.41 C 103.81 155.40 101.71 159.58 102.63 163.99 C 103.41 166.33 105.39 168.71 108.05 168.75 C 110.71 168.76 114.22 169.52 116.03 167.00 C 118.97 163.18 120.15 158.38 122.07 154.03 C 130.11 134.99 137.73 115.79 145.74 96.75 C 147.22 93.09 148.84 88.39 146.00 84.96 C 143.79 81.43 139.07 82.15 135.57 82.69 M 83.49 86.50 C 73.11 96.44 62.84 106.51 52.33 116.33 C 49.94 118.64 47.31 121.43 47.48 125.00 C 47.30 128.57 49.94 131.36 52.33 133.67 C 62.84 143.49 73.11 153.56 83.49 163.51 C 85.15 165.03 86.89 166.58 89.05 167.35 C 93.96 168.51 99.22 164.00 98.76 158.95 C 99.17 154.16 94.68 151.27 91.74 148.25 C 83.77 140.48 75.50 133.00 67.76 125.00 C 75.30 117.11 83.53 109.93 91.15 102.12 C 94.20 98.92 99.21 96.14 98.75 91.05 C 99.22 86.00 93.96 81.49 89.04 82.64 C 86.89 83.42 85.15 84.97 83.49 86.50 M 154.42 83.37 C 149.36 85.92 148.56 93.56 152.62 97.36 C 161.59 106.39 171.03 114.98 180.08 123.92 C 181.44 125.26 179.53 126.67 178.65 127.61 C 171.18 134.49 164.02 141.69 156.61 148.62 C 154.59 150.58 152.41 152.46 150.96 154.91 C 148.34 159.74 151.30 166.83 156.99 167.48 C 160.65 168.01 163.41 165.10 165.89 162.88 C 176.28 152.93 186.57 142.88 197.05 133.03 C 199.29 130.92 201.40 128.24 201.32 125.00 C 201.41 121.49 198.95 118.71 196.54 116.48 C 185.51 106.18 174.82 95.53 163.81 85.21 C 161.41 82.75 157.54 81.44 154.42 83.37 Z" />
</g>
<g id="#43b581ff">
<path fill="#43b581" opacity="1.00" d=" M 135.57 82.69 C 139.07 82.15 143.79 81.43 146.00 84.96 C 148.84 88.39 147.22 93.09 145.74 96.75 C 137.73 115.79 130.11 134.99 122.07 154.03 C 120.15 158.38 118.97 163.18 116.03 167.00 C 114.22 169.52 110.71 168.76 108.05 168.75 C 105.39 168.71 103.41 166.33 102.63 163.99 C 101.71 159.58 103.81 155.40 105.39 151.41 C 113.17 133.17 120.41 114.70 128.17 96.45 C 130.32 91.77 131.21 85.95 135.57 82.69 Z" />
<path fill="#43b581" opacity="1.00" d=" M 83.49 86.50 C 85.15 84.97 86.89 83.42 89.04 82.64 C 93.96 81.49 99.22 86.00 98.75 91.05 C 99.21 96.14 94.20 98.92 91.15 102.12 C 83.53 109.93 75.30 117.11 67.76 125.00 C 75.50 133.00 83.77 140.48 91.74 148.25 C 94.68 151.27 99.17 154.16 98.76 158.95 C 99.22 164.00 93.96 168.51 89.05 167.35 C 86.89 166.58 85.15 165.03 83.49 163.51 C 73.11 153.56 62.84 143.49 52.33 133.67 C 49.94 131.36 47.30 128.57 47.48 125.00 C 47.31 121.43 49.94 118.64 52.33 116.33 C 62.84 106.51 73.11 96.44 83.49 86.50 Z" />
<path fill="#43b581" opacity="1.00" d=" M 154.42 83.37 C 157.54 81.44 161.41 82.75 163.81 85.21 C 174.82 95.53 185.51 106.18 196.54 116.48 C 198.95 118.71 201.41 121.49 201.32 125.00 C 201.40 128.24 199.29 130.92 197.05 133.03 C 186.57 142.88 176.28 152.93 165.89 162.88 C 163.41 165.10 160.65 168.01 156.99 167.48 C 151.30 166.83 148.34 159.74 150.96 154.91 C 152.41 152.46 154.59 150.58 156.61 148.62 C 164.02 141.69 171.18 134.49 178.65 127.61 C 179.53 126.67 181.44 125.26 180.08 123.92 C 171.03 114.98 161.59 106.39 152.62 97.36 C 148.56 93.56 149.36 85.92 154.42 83.37 Z" />
</g>
</svg>

<?xml version="1.0" encoding="utf-8"?>
<!-- Generator: Adobe Illustrator 26.0.3, SVG Export Plug-In . SVG Version: 6.00 Build 0)  -->
<svg version="1.1" id="Layer_1" xmlns="http://www.w3.org/2000/svg" xmlns:xlink="http://www.w3.org/1999/xlink" x="0px" y="0px"
	 viewBox="0 0 250 250" style="enable-background:new 0 0 250 250;" xml:space="preserve">
<style type="text/css">
	.st0{fill:#212121;}
	.st1{fill:#43B581;}
</style>
<circle class="st0" cx="125" cy="125.5" r="125"/>
<g id="_x23_43b581ff">
	<path class="st1" d="M135.6,82.7c3.5-0.5,8.2-1.3,10.4,2.3c2.8,3.4,1.2,8.1-0.3,11.8c-8,19-15.6,38.2-23.7,57.3
		c-1.9,4.4-3.1,9.1-6,13c-1.8,2.5-5.3,1.8-8,1.8c-2.7,0-4.6-2.4-5.4-4.8c-0.9-4.4,1.2-8.6,2.8-12.6c7.8-18.2,15-36.7,22.8-55
		C130.3,91.8,131.2,85.9,135.6,82.7z"/>
	<path class="st1" d="M83.5,86.5c1.7-1.5,3.4-3.1,5.6-3.9c4.9-1.2,10.2,3.4,9.7,8.4c0.5,5.1-4.6,7.9-7.6,11.1
		c-7.6,7.8-15.8,15-23.4,22.9c7.7,8,16,15.5,24,23.2c2.9,3,7.4,5.9,7,10.7c0.5,5.1-4.8,9.6-9.7,8.4c-2.2-0.8-3.9-2.3-5.6-3.8
		c-10.4-9.9-20.6-20-31.2-29.8c-2.4-2.3-5-5.1-4.9-8.7c-0.2-3.6,2.5-6.4,4.9-8.7C62.8,106.5,73.1,96.4,83.5,86.5z"/>
	<path class="st1" d="M154.4,83.4c3.1-1.9,7-0.6,9.4,1.8c11,10.3,21.7,21,32.7,31.3c2.4,2.2,4.9,5,4.8,8.5c0.1,3.2-2,5.9-4.3,8
		c-10.5,9.9-20.8,19.9-31.2,29.9c-2.5,2.2-5.2,5.1-8.9,4.6c-5.7-0.6-8.7-7.7-6-12.6c1.4-2.4,3.6-4.3,5.6-6.3
		c7.4-6.9,14.6-14.1,22-21c0.9-0.9,2.8-2.3,1.4-3.7c-9.1-8.9-18.5-17.5-27.5-26.6C148.6,93.6,149.4,85.9,154.4,83.4z"/>
</g>
</svg>
